www/assets/icons/share_location.svg

<svg width="24" height="24" viewBox="0 0 24 24" xmlns="http://www.w3.org/2000/svg" fill='currentColor'><path d="M13.02 19.9298V21.9498C15.03 21.7498 16.86 20.9498 18.34 19.7398L16.92 18.3098C15.81 19.1698 14.48 19.7498 13.02 19.9298Z"/><path d="M4.03003 11.9998C4.03003 7.9498 7.06003 4.5898 10.98 4.0698V2.0498C5.95003 2.5798 2.03003 6.8398 2.03003 11.9998C2.03003 17.1598 5.95003 21.4198 10.98 21.9498V19.9298C7.06003 19.4098 4.03003 16.0498 4.03003 11.9998Z"/><path d="M19.95 10.9998H21.97C21.77 8.9898 20.97 7.1598 19.76 5.6798L18.33 7.10981C19.19 8.20981 19.77 9.5398 19.95 10.9998Z"/><path d="M18.34 4.2598C16.86 3.0498 15.02 2.2498 13.02 2.0498V4.0698C14.48 4.2498 15.81 4.8298 16.92 5.6898L18.34 4.2598Z"/><path d="M18.33 16.8998L19.76 18.3198C20.97 16.8398 21.77 15.0098 21.97 12.9998H19.95C19.77 14.4598 19.19 15.7898 18.33 16.8998Z"/><path d="M16 11.0998C16 8.60981 14.1 6.9998 12 6.9998C9.90003 6.9998 8.00003 8.60981 8.00003 11.0998C8.00003 12.7598 9.33003 14.7298 12 16.9998C14.67 14.7298 16 12.7598 16 11.0998ZM12 11.9998C11.41 11.9998 10.93 11.5198 10.93 10.9298C10.93 10.3398 11.41 9.8598 12 9.8598C12.59 9.8598 13.07 10.3398 13.07 10.9298C13.07 11.5198 12.59 11.9998 12 11.9998Z"/></svg>

<svg xmlns="http://www.w3.org/2000/svg" width="24" height="24" viewBox="0 0 24 24" fill='currentColor'><path d="M13.02 19.93v2.02c2.01-.2 3.84-1 5.32-2.21l-1.42-1.43a7.94 7.94 0 0 1-3.9 1.62M4.03 12c0-4.05 3.03-7.41 6.95-7.93V2.05C5.95 2.58 2.03 6.84 2.03 12s3.92 9.42 8.95 9.95v-2.02c-3.92-.52-6.95-3.88-6.95-7.93m15.92-1h2.02c-.2-2.01-1-3.84-2.21-5.32l-1.43 1.43c.86 1.1 1.44 2.43 1.62 3.89m-1.61-6.74a10 10 0 0 0-5.32-2.21v2.02c1.46.18 2.79.76 3.9 1.62zm-.01 12.64 1.43 1.42A9.95 9.95 0 0 0 21.97 13h-2.02a7.94 7.94 0 0 1-1.62 3.9"/><path d="M16 11.1C16 8.61 14.1 7 12 7s-4 1.61-4 4.1c0 1.66 1.33 3.63 4 5.9 2.67-2.27 4-4.24 4-5.9m-4 .9a1.071 1.071 0 0 1 0-2.14A1.071 1.071 0 0 1 12 12"/></svg>
